X:1
T:Ave Maria ... Benedicta tu
T:Josquin des Prez edit BMarble
T:Ave Maria ... Benedicta tu
T:Copyright © 2015 by The Choral Public Domain Library. Edition may be freely distributed, duplicated, performed or recorded.
T:Copyright © 2015 by The Choral Public Domain Library. Edition may be freely distributed, duplicated, performed or recorded.
T:Copyright © 2015 by The Choral Public Domain Library. Edition may be freely distributed, duplicated, performed or recorded.
T:Copyright © 2015 by The Choral Public Domain Library. Edition may be freely distributed, duplicated, performed or recorded.
T:Copyright © 2015 by The Choral Public Domain Library. Edition may be freely distributed, duplicated, performed or recorded.
T:Copyright © 2015 by The Choral Public Domain Library. Edition may be freely distributed, duplicated, performed or recorded.
T:Copyright © 2015 by The Choral Public Domain Library. Edition may be freely distributed, duplicated, performed or recorded.
C:Josquin des Prez
C:edit BMarble
Z:Copyright © 2015 by The Choral Public Domain Library. Edition may be freely distributed, duplicated, performed or recorded.
%%score [ 1 2 3 4 ]
L:1/8
Q:1/2=100
M:4/2
K:Bb
V:1 treble nm="SOPRANO" snm="S."
V:2 treble nm="ALTO" snm="A."
V:3 treble-8 transpose=-12 nm="TENOR" snm="T."
V:4 bass nm="BASS" snm="B."
V:1
"^Hail Mary, full of grace, the Lord is with you.Blessed are you among women, and blessed is the fruit of your womb, Jesus Christ, Son of the living God.Blessed be the breasts that nursed the King of Kings and our Lord God." z16 | %1
w: |
 z16 | B16 | F8 G8 | G4 A4 B4 c4 | d8 c4 B4- | B4 A4 B8 | z16 | z16 | z16 | d8 c8 | B8 c8 | d8 z8 | %13
w: |A-|ve Ma-|ri- * * *||* * a,||||gra- ti-|a ple-|na.|
 z16 | z16 | z4 (d6 c2 B2 A2 | B6) c2 G4 A4- | A2 G2 G8 ^F4 | G4 B8 A2 G2 | =F8 z8 | z8 z4 (c4 | %21
w: ||Do- * * *|* mi- nus te-||cum, te- * *|cum.|Be-|
 d6) d2 c4 d4- | (d2 c2 B8 A4) | B8 z8 | z16 | z4 c4 d6 c2 | d4 B4 A2 B2 c2 d2 | =e2 f2 g4 f4 e4- | %28
w: * ne- di- cta|_ _ _ _|tu||in mu- li-|e- ri- bus, _ _ _|_ _ _ in mu-|
 e2 d2 d8 ^c4 | d8 z8 | z8 z4 B4 | c4 c4 A8 | G8 z4 c4 | B4 A4 G4 G4 | F8 z4 c4 | A4 (B8 A2 G2) | %36
w: * li- e- ri-|bus|et|be- ne- di-|ctus fru-|ctus ven- tris tu-|i, Je-|sus Chri- * *|
 F8 z4 c4 | A4 (B8 A2 G2 | F8) G4 B4- | B4 A6 G2 B4- | B2 A2 G8 ^F4 ||[M:3/2][Q:1/2=116] G8 z4 | %42
w: stus, Fi-|li- us _ _|_ De- i|_ vi- * *||vi.|
 G8 B4 | A4 B4 c4 | d8 z4 | z12 | d4 d4 e4 | f8 e4 | d8 c4 | d8 z4 | z12 | f4 f4 e4 | (d6 c2 B4) | %53
w: Et be-|ne- di- ctus|sint||be- a- ta|u- be-|ra tu-|a,||quae la- cta-|ve- * *|
 A8 c4 | B6 A2 G4 ||[M:3/1]"^rit." F4 B6 A2 A8 G4 ||[M:4/2][Q:1/2=96] A16 | z16 | z4 d4 (d6 c2 | %59
w: runt Re-|gem _ _|_ Re- * * *|gum||et Do- *|
 B4) A4 (G4 F4) | (G4 A4 B4) c4 | G6 A2 B2 c2 d4- | d2 c2 B2 A2 B4 A4- |"^rit." A2 G2 G8 ^F4 | %64
w: * mi- num _|De- * * um|nos- * * * *|* * * * trum, nos-||
 G16- | G16 |] %66
w: trum.|_|
V:2
 z16 | z16 | z16 | z16 | z16 | B,16 | F,8 G,8 | (G,4 A,4 B,4 C4) | D8 (E6 D2 | E4) F4 G4 A4- | %10
w: |||||A-|ve Ma-|ri- * * *|a gra- *|* ti- a ple-|
 A2 G2 G6 ^F2 F2 =E2 | G8 z8 | z4 (D6 C2 B,2 A,2 | B,6) C2 G,4 A,4- | A,2 G,2 G,8 ^F,4 | %15
w: |na.|Do- * * *|* mi- nus te-||
 G,8 z4 G4 | (G6 F2 E4) F4 | B,4 C4 D6 C2 | B,2 A,2 D4 G,8 | A,8 z8 | z8 z4 E4 | D4 F6 E2 D2 C2 | %22
w: cum. Do-|mi- * * nus|te- * * *||cum.|Be-|ne- di- * * *|
 B,4 D4 C8 | B,8 z4 C4 | D6 C2 D4 B,4 | A,4 A4 F4 G4- | G2 F2 D2 =E2 F2 G2 A4- | A2 G2 =E4 F4 G4 | %28
w: * * cta|tu in|mu- li- e- ri-|bus, in mu- li-|||
 D8 =E8 | D8 z4 =E4 | F4 F4 D8 | C8 z4 C4 | B,4 B,4 _E4 E4 | D8 z4 C4 | D8 E8 | D8 z4 C4 | %36
w: e- ri-|bus et|be- ne- di-|ctus fru-|ctus ven- tris tu-|i, Je-|sus Chris-|tus, Fi-|
 D4 D4 E8 | D8 z4 (C4 | D8) E8 | D4 (F6 E2 D2 C2 | D4) E4 D8 ||[M:3/2] D8 z4 | z12 | z12 | %44
w: li- us De-|i, Fi-|* li-|us De- * * *|* i vi-|vi.|||
 G,8 B,4 | A,4 B,4 C4 | D8 z4 | z12 | D4 D4 E4 | F8 E4 | D8 C4 | D8 z4 | A,4 A,4 B,4 | C8 G4 | %54
w: Et be-|ne- di- ctus|sint||be- a- ta|u- be-|ra tu-|a,|quae la- cta-|ve- runt|
 (G6 F2 D4) ||[M:3/1] D4 G4 F6 E2 D4 E4 ||[M:4/2] D8 z4 D4 | (D6 C2 B,4) A,4 | (G,4 F,4) G,4 D,4 | %59
w: Re- * *|gem Re- * * * *|gum et|Do- * * mi-|num _ De- um,|
 D4 F6 E2 D2 C2 | B,4 D6 CB, F4 | D4 E4 D8 | G6 F2 G4 !courtesy!=E4 | F4 (D6 C2 A,4) | B,8 E8 | %65
w: nos- * * * *|trum, Do- * * *|* mi- num|De- * * *|um nos- * *|trum, nos-|
 D16 |] %66
w: trum.|
V:3
 B16 | F8 G8 | (G4 A4 B4 c4) | d8 (e6 d2 | e4) f4 (e6 dc | B4) f8 d4 | c8 B8- | B4 A4 G8 | F8 z8 | %9
w: A-|ve Ma-|ri- * * *|a gra- *|* ti- a _ _|_ ple- *|||na,|
 z16 | z16 | z4 (d4 e4 f4) | B8 z8 | z16 | z16 | z8 z4 d4- | (d2 c2 B2 A2 B4) c4 | G8 A8 | %18
w: ||ple- * *|na.|||Do-|* * * * * mi-|nus te-|
 G8 z4 (c4 | d6) d2 c4 d4- | (d2 c2 B8 A4) | B8 z8 | z16 | z16 | z16 | z16 | z16 | z4 c4 d6 c2 | %28
w: cum. Be-|* ne- di- cta|_ _ _ _|tu||||||in mu- li-|
 d4 B4 A8 | z16 | z16 | z4 =e4 f4 f4 | d8 c8 | z4 F4 G4 G4 | A4 A4 G8 | z4 F4 G8 | A8 G8 | %37
w: e- ri- bus,|||et be- ne-|di- ctus|fru- ctus ven-|tris tu- i,|Je- sus|Chris- tus.|
 z4 (F4 G8) | A8 (G6 A2 | B4) c8 G4 | (B4 c4 A8) ||[M:3/2] G8 z4 | g8 g4 | f4 g4 e4 | d8 z4 | %45
w: Fi- *|li- us _|_ De- i|vi- * *|vi.|Et be-|ne- di- ctus|sint|
 d4 d4 e4 | f8 e4 | d8 c4 | d8 z4 | z12 | z12 | z12 | z12 | f4 f4 e4 | (d6 c2 B4) || %55
w: be- a- ta|u- be-|ra tu-|a,|||||quae la- cta-|ve- * *|
[M:3/1] A4 G4 c8 B8 ||[M:4/2] A16 | z16 | z8 z4 d4 | (d6 c2 B4) A4 | (G4 F4) (G4 A4 | %61
w: runt Re- gem Re-|gum||et|Do- * * mi-|num _ De- *|
 B4) c4 (G6 A2 | B2 c2 d8) c4- | c4 (B4 A8) | G16- | G16 |] %66
w: * um nos- *|* * * trum,|_ nos- *|trum.|_|
V:4
 z16 | z16 | z16 | z16 | z16 | z16 | z16 | E,16 | B,,8 C,8 | C,4 D,4 E,4 F,4 | G,4 B,4 A,8 | %11
w: |||||||A-|ve Ma-|ri- * * *||
 G,8 z8 | z8 z4 D4- | (D2 C2 B,2 A,2 B,4) C4 | G,8 A,8 | G,8 z4 G,4 | (G,6 A,2 G,4) F,4 | E,8 D,8 | %18
w: a.|Do-|* * * * * mi-|nus te-|cum. Be-|ne- * * di-|cta tu|
 z4 G,4 (G,4 E,4) | D,4 F,6 E,2 D,2 C,2 | B,,4 D,4 C,8 | B,,8 z8 | z8 z4 F,4 | G,6 F,2 G,4 E,4 | %24
w: Be- ne- *|di- * * * *|* * cta|tu|in|mu- li- e- ri-|
 D,16 | z16 | z16 | z16 | z8 z4 A,4 | B,4 B,4 G,8 | F,8 z4 G,4 | A,4 A,4 F,4 F,4 | G,8 C,8 | %33
w: bus,||||et|be- ne- di-|ctus fru-|ctus ven- tris tu-|i, Je-|
 D,8 E,8 | D,8 z4 (C,4 | D,8) E,8 | D,8 z4 C,4 | D,8 E,8 | D,8 z4 G,4- | (G,4 F,8 G,4-) | %40
w: sus Chris-|tus, Fi-|* li-|us De-|i vi-|vi, De-||
 G,4 C,4 D,8 ||[M:3/2] G,8 z4 | z12 | z12 | G,8 G,4 | F,4 G,4 E,4 | D,8 z4 | z12 | z12 | %49
w: * i vi-|vi.|||Et be-|ne- di- ctus|sint|||
 D,4 D,4 E,4 | F,8 E,4 | D,8 C,4 | D,8 G,4 | F,8 C,4 | G,8 G,4 ||[M:3/1] (D,4 E,4) F,8 G,8 || %56
w: be- a- ta|u- be-|ra tu-|a, quae|la- cta-|ve- runt|Re- * gem Re-|
[M:4/2] D,16 | z4 D4 (D6 C2 | B,4) A,4 (G,4 F,4) | G,4 D,4 z4 D,4 | E,4 D,4 (G,4 F,4) | %61
w: gum|et Do- *|* mi- num _|De- um, et|Do- mi- num _|
 G,4 C,4 z4 G,4- | G,2 A,2 G,8 A,4 | F,4 (G,4 D,8) | G,16- | G,16 |] %66
w: De- um nos-||trum, nos- *|trum.|_|

